X:1
T:James Gibb editions
T:Quiet, Lord, this trembling frame - Barnby
%%score [ ( 1 2 ) ( 3 4 ) ]
L:1/8
Q:1/4=80
M:4/4
K:F
V:1 treble nm="Midi_74"
V:2 treble 
V:3 bass nm="Midi_74"
V:4 bass 
V:1
!p!"^77. 77. 77""^Quiet, Lord, this trembling frame""^Joseph Barnby\n(1838-96)""^Thomas Hastings\n(1784-1872)" A2 B2 G2 F2 | %1
 F2 E2 F4 ||!mf! c2 d2 =B2 A2 | A2 ^G2 A4 || d2"^cresc." e2 f2 A2 | A2 B2 c4 || %6
[M:4/4]!p! F2 B2 A2 G2 | F2 EF G4 ||"^1" A2 A2 A2 GF | B2 B2 B4 || A2 c2 F2 A2 | D4 E4 | F8 || %13
 F4 F4 |] %14
V:2
 F2 F2 E2 F2 | D2 C2 C4 || E2 D2 D2 C2 | F2 ED C4 || G2 G2 F2 F2 | _E2 E2 E4 || %6
[M:4/4] D2 C2 C2 D2 | C2 =B,2 C4 || C2 F2 F2 C2 | F2 E2 F2- G2 || F2 E2 D2 ^C2 | D4 (C2 B,2) | %12
 A,8 || D4 C4 |] %14
V:3
 C2 B,2 B,2 A,2 | G,2 G,2 A,4 || C2 A,2 ^G,2 A,2 | =B,2 B,2 A,4 || B,2 B,2 A,2 F,2 | F,2 G,2 F,4 || %6
[M:4/4] F,2 E,2 F,2 B,2 | A,2 G,F,"^cresc." E,4 || %8
"^1. Quiet, Lord, this trembling frame,\nTranquilise this beating heart,\nLet the savour of Thy name\nSweetest influence now impart,\nTill the thought that Thou art near\nShall dispel each rising fear.\n\n2. Let me find a hallowed rest\nNever more in sin to rove,\nGently leaning on Thy breast\nIn humility and love;\nLike a simple-hearted child,\nWith affections undefiled.\n\n3. Then, though earthly cares assail,\nThough afflictions mark my way,\nNo temptation shall prevail,\nTo dishearten or betray;\nWhile I thus in Thee confide,\nEvery want is satisfied.\n" F,2 C2 C2 A,2 | %9
 B,2 C2 C4 || C2 B,2 A,2 G,2 | (F,2 B,2) (A,2 G,2) | F,8 || B,4 A,4 |] %14
V:4
 F,2 D,2 C,2 D,2 | B,,2 C,2 F,4 || A,2 F,2 E,2 F,2 | D,2 E,2 A,4 || G,2 C,2 D,2 D,2 | %5
 C,2 B,,2 A,,4 ||[M:4/4] B,,2 G,,2 A,,2 B,,2 | C,2 D,2 C,4 || F,2 C,2 F,2 A,2 | %9
 G,2 C,2 (D,2 E,2) || F,2 C,2 D,2 A,,2 | B,,4 C,4 | F,8 || B,,4 F,4 |] %14

